Newaita-dark/mimetypes/32/text-x-apport.svg

<?xml version="1.0" encoding="UTF-8"?>
<svg xmlns="http://www.w3.org/2000/svg" xmlns:xlink="http://www.w3.org/1999/xlink" width="32pt" height="32pt" viewBox="0 0 32 32" version="1.1">
<defs>
<linearGradient id="linear0" gradientUnits="userSpaceOnUse" x1="254" y1="233.5" x2="254" y2="254.666672" gradientTransform="matrix(0.062506,0,0,0.062506,0.66152,13.438785)">
<stop offset="0" style="stop-color:rgb(0%,0%,0%);stop-opacity:0.27451;"/>
<stop offset="1" style="stop-color:rgb(0%,0%,0%);stop-opacity:0;"/>
</linearGradient>
<radialGradient id="radial0" gradientUnits="userSpaceOnUse" cx="450.908936" cy="189.579361" fx="450.908936" fy="189.579361" r="21.166656" gradientTransform="matrix(0.00000017417,-0.0781325,-0.140638,-0.000000101539,49.484569,63.595333)">
<stop offset="0" style="stop-color:rgb(0%,0%,0%);stop-opacity:0.313725;"/>
<stop offset="0.222222" style="stop-color:rgb(0%,0%,0%);stop-opacity:0.27451;"/>
<stop offset="1" style="stop-color:rgb(0%,0%,0%);stop-opacity:0;"/>
</radialGradient>
<radialGradient id="radial1" gradientUnits="userSpaceOnUse" cx="450.908936" cy="189.579361" fx="450.908936" fy="189.579361" r="21.166656" gradientTransform="matrix(-0.00000017417,0.0781325,0.140638,0.000000101539,-18.393049,-7.527479)">
<stop offset="0" style="stop-color:rgb(0%,0%,0%);stop-opacity:0.313725;"/>
<stop offset="0.222222" style="stop-color:rgb(0%,0%,0%);stop-opacity:0.27451;"/>
<stop offset="1" style="stop-color:rgb(0%,0%,0%);stop-opacity:0;"/>
</radialGradient>
<radialGradient id="radial2" gradientUnits="userSpaceOnUse" cx="450.908936" cy="189.579361" fx="450.908936" fy="189.579361" r="21.166656" gradientTransform="matrix(-0.00000017417,-0.0781325,0.140638,-0.000000101539,-18.393049,63.595333)">
<stop offset="0" style="stop-color:rgb(0%,0%,0%);stop-opacity:0.313725;"/>
<stop offset="0.222222" style="stop-color:rgb(0%,0%,0%);stop-opacity:0.27451;"/>
<stop offset="1" style="stop-color:rgb(0%,0%,0%);stop-opacity:0;"/>
</radialGradient>
<radialGradient id="radial3" gradientUnits="userSpaceOnUse" cx="450.908936" cy="189.579361" fx="450.908936" fy="189.579361" r="21.166656" gradientTransform="matrix(0.00000017417,0.0781325,-0.140638,0.000000101539,49.484567,-7.527479)">
<stop offset="0" style="stop-color:rgb(0%,0%,0%);stop-opacity:0.313725;"/>
<stop offset="0.222222" style="stop-color:rgb(0%,0%,0%);stop-opacity:0.27451;"/>
<stop offset="1" style="stop-color:rgb(0%,0%,0%);stop-opacity:0;"/>
</radialGradient>
<linearGradient id="linear1" gradientUnits="userSpaceOnUse" x1="940" y1="1695.118164" x2="940" y2="175.118118" gradientTransform="matrix(0.016538,0,0,0.016538,0,0)">
<stop offset="0" style="stop-color:rgb(93.72549%,60.392157%,60.392157%);stop-opacity:1;"/>
<stop offset="1" style="stop-color:rgb(100%,80.392157%,82.352941%);stop-opacity:1;"/>
</linearGradient>
<linearGradient id="linear2" gradientUnits="userSpaceOnUse" x1="249.189423" y1="233.5" x2="249.189423" y2="254.666687" gradientTransform="matrix(0.0298942,0,0,0.109385,15.042423,-16.360911)">
<stop offset="0" style="stop-color:rgb(0%,0%,0%);stop-opacity:0.27451;"/>
<stop offset="1" style="stop-color:rgb(0%,0%,0%);stop-opacity:0;"/>
</linearGradient>
<linearGradient id="linear3" gradientUnits="userSpaceOnUse" x1="338.666656" y1="233.5" x2="338.666656" y2="-168.666672" gradientTransform="matrix(0.062506,0,0,0.062506,0,13.438783)">
<stop offset="0" style="stop-color:rgb(93.72549%,32.54902%,31.372549%);stop-opacity:1;"/>
<stop offset="1" style="stop-color:rgb(89.803922%,45.098039%,45.098039%);stop-opacity:1;"/>
</linearGradient>
<linearGradient id="linear4" gradientUnits="userSpaceOnUse" x1="940" y1="1695.118164" x2="940" y2="175.118118" >
<stop offset="0" style="stop-color:rgb(93.72549%,32.54902%,31.372549%);stop-opacity:1;"/>
<stop offset="1" style="stop-color:rgb(89.803922%,45.098039%,45.098039%);stop-opacity:1;"/>
</linearGradient>
</defs>
<g id="surface1">
<path style=" stroke:none;fill-rule:nonzero;fill:url(#linear0);" d="M 7.9375 28.035156 L 23.152344 28.035156 L 23.152344 29.355469 L 7.9375 29.355469 Z M 7.9375 28.035156 "/>
<path style=" stroke:none;fill-rule:nonzero;fill:url(#radial0);" d="M 23.152344 28.035156 L 25.800781 28.035156 L 25.800781 26.710938 L 23.152344 26.710938 Z M 23.152344 28.035156 "/>
<path style=" stroke:none;fill-rule:nonzero;fill:url(#radial1);" d="M 7.9375 28.035156 L 5.292969 28.035156 L 5.292969 29.355469 L 7.9375 29.355469 Z M 7.9375 28.035156 "/>
<path style=" stroke:none;fill-rule:nonzero;fill:url(#radial2);" d="M 7.9375 28.035156 L 5.292969 28.035156 L 5.292969 26.710938 L 7.9375 26.710938 Z M 7.9375 28.035156 "/>
<path style=" stroke:none;fill-rule:nonzero;fill:url(#radial3);" d="M 23.152344 28.035156 L 25.800781 28.035156 L 25.800781 29.355469 L 23.152344 29.355469 Z M 23.152344 28.035156 "/>
<path style=" stroke:none;fill-rule:nonzero;fill:url(#linear1);" d="M 18.542969 2.894531 L 6.613281 2.894531 C 5.882812 2.894531 5.292969 3.484375 5.292969 4.21875 L 5.292969 26.710938 C 5.292969 27.445312 5.882812 28.035156 6.613281 28.035156 L 24.476562 28.035156 C 25.210938 28.035156 25.800781 27.445312 25.800781 26.710938 L 25.800781 10.152344 Z M 18.542969 2.894531 "/>
<path style=" stroke:none;fill-rule:nonzero;fill:url(#linear2);" d="M 18.523438 9.179688 L 24.808594 9.179688 L 25.800781 10.171875 L 25.800781 11.496094 L 18.523438 11.496094 Z M 18.523438 9.179688 "/>
<path style=" stroke:none;fill-rule:nonzero;fill:rgb(0%,0%,0%);fill-opacity:0.235294;" d="M 5.292969 26.195312 L 5.292969 26.710938 C 5.292969 27.445312 5.882812 28.035156 6.613281 28.035156 L 24.476562 28.035156 C 25.210938 28.035156 25.800781 27.445312 25.800781 26.710938 L 25.800781 26.195312 C 25.800781 26.929688 25.210938 27.519531 24.476562 27.519531 L 6.613281 27.519531 C 5.882812 27.519531 5.292969 26.929688 5.292969 26.195312 Z M 5.292969 26.195312 "/>
<path style=" stroke:none;fill-rule:nonzero;fill:rgb(96.470588%,96.470588%,96.470588%);fill-opacity:0.588235;" d="M 6.613281 2.894531 C 5.882812 2.894531 5.292969 3.484375 5.292969 4.21875 L 5.292969 4.714844 C 5.292969 3.980469 5.882812 3.390625 6.613281 3.390625 L 18.542969 3.390625 L 25.800781 10.648438 L 25.800781 10.152344 L 18.542969 2.894531 Z M 6.613281 2.894531 "/>
<path style=" stroke:none;fill-rule:nonzero;fill:url(#linear3);" d="M 25.800781 10.152344 L 18.542969 2.894531 L 18.542969 8.832031 C 18.542969 9.5625 19.132812 10.152344 19.863281 10.152344 Z M 25.800781 10.152344 "/>
<path style=" stroke:none;fill-rule:nonzero;fill:rgb(0%,0%,0%);fill-opacity:0.235294;" d="M 18.542969 8.519531 L 18.542969 8.832031 C 18.542969 9.5625 19.132812 10.152344 19.863281 10.152344 L 25.800781 10.152344 L 25.488281 9.84375 L 19.863281 9.84375 C 19.132812 9.84375 18.542969 9.253906 18.542969 8.519531 Z M 18.542969 8.519531 "/>
<path style=" stroke:none;fill-rule:nonzero;fill:rgb(100%,100%,100%);fill-opacity:0.392157;" d="M 18.542969 2.894531 L 18.542969 3.390625 L 25.304688 10.152344 L 25.800781 10.152344 Z M 18.542969 2.894531 "/>
<path style=" stroke:none;fill-rule:nonzero;fill:rgb(12.941177%,12.941177%,12.941177%);fill-opacity:1;" d="M 18.539062 2.800781 C 18.488281 2.804688 18.449219 2.84375 18.449219 2.894531 L 18.449219 8.832031 C 18.449219 9.613281 19.082031 10.246094 19.863281 10.246094 L 25.800781 10.246094 C 25.835938 10.246094 25.871094 10.222656 25.886719 10.1875 C 25.902344 10.152344 25.890625 10.113281 25.867188 10.085938 L 18.609375 2.828125 C 18.589844 2.8125 18.566406 2.800781 18.539062 2.800781 Z M 18.636719 3.121094 L 25.574219 10.058594 L 19.863281 10.058594 C 19.183594 10.058594 18.636719 9.511719 18.636719 8.832031 Z M 18.636719 3.121094 "/>
<path style=" stroke:none;fill-rule:nonzero;fill:rgb(12.941177%,12.941177%,12.941177%);fill-opacity:1;" d="M 6.613281 2.800781 C 5.832031 2.800781 5.199219 3.4375 5.199219 4.21875 L 5.199219 26.710938 C 5.199219 27.496094 5.832031 28.128906 6.613281 28.128906 L 24.476562 28.128906 C 25.257812 28.128906 25.894531 27.496094 25.894531 26.710938 L 25.894531 10.152344 C 25.894531 10.128906 25.882812 10.105469 25.867188 10.085938 L 18.609375 2.828125 C 18.589844 2.8125 18.566406 2.800781 18.542969 2.800781 Z M 6.613281 2.988281 L 18.503906 2.988281 L 25.707031 10.191406 L 25.707031 26.710938 C 25.707031 27.394531 25.160156 27.941406 24.476562 27.941406 L 6.613281 27.941406 C 5.933594 27.941406 5.386719 27.394531 5.386719 26.710938 L 5.386719 4.21875 C 5.386719 3.535156 5.933594 2.988281 6.613281 2.988281 Z M 6.613281 2.988281 "/>
<path style="fill-rule:nonzero;fill:url(#linear4);stroke-width:11.338583;stroke-linecap:round;stroke-linejoin:round;stroke:rgb(12.941177%,12.941177%,12.941177%);stroke-opacity:1;stroke-miterlimit:4;" d="M 620.019564 695.130505 C 608.918261 695.130505 599.94274 704.106027 599.94274 715.207329 L 599.94274 755.124779 C 599.94274 766.226082 608.918261 775.201603 620.019564 775.201603 L 659.937014 775.201603 C 671.038317 775.201603 680.013838 766.226082 680.013838 755.124779 L 680.013838 715.207329 C 680.013838 704.106027 671.038317 695.130505 659.937014 695.130505 Z M 779.925562 695.130505 C 768.824259 695.130505 760.084936 704.106027 760.084936 715.207329 L 760.084936 755.124779 C 760.084936 766.226082 768.824259 775.201603 779.925562 775.201603 L 820.07921 775.201603 C 831.180512 775.201603 839.919836 766.226082 839.919836 755.124779 L 839.919836 715.207329 C 839.919836 704.106027 831.180512 695.130505 820.07921 695.130505 Z M 1060.056306 695.130505 C 1048.955003 695.130505 1039.979482 704.106027 1039.979482 715.207329 L 1039.979482 755.124779 C 1039.979482 766.226082 1048.955003 775.201603 1060.056306 775.201603 L 1099.973756 775.201603 C 1111.075058 775.201603 1120.05058 766.226082 1120.05058 755.124779 L 1120.05058 715.207329 C 1120.05058 704.106027 1111.075058 695.130505 1099.973756 695.130505 Z M 1219.962304 695.130505 C 1208.861001 695.130505 1199.88548 704.106027 1199.88548 715.207329 L 1199.88548 755.124779 C 1199.88548 766.226082 1208.861001 775.201603 1219.962304 775.201603 L 1260.115952 775.201603 C 1270.981056 775.201603 1279.956578 766.226082 1279.956578 755.124779 L 1279.956578 715.207329 C 1279.956578 704.106027 1270.981056 695.130505 1260.115952 695.130505 Z M 700.090662 775.201603 C 688.989359 775.201603 680.013838 783.940927 680.013838 795.042229 L 680.013838 835.195877 C 680.013838 846.29718 688.989359 855.036503 700.090662 855.036503 L 740.008112 855.036503 C 751.109414 855.036503 760.084936 846.29718 760.084936 835.195877 L 760.084936 795.042229 C 760.084936 783.940927 751.109414 775.201603 740.008112 775.201603 Z M 1139.891206 775.201603 C 1129.026101 775.201603 1120.05058 783.940927 1120.05058 795.042229 L 1120.05058 835.195877 C 1120.05058 846.29718 1129.026101 855.036503 1139.891206 855.036503 L 1180.044854 855.036503 C 1191.146156 855.036503 1199.88548 846.29718 1199.88548 835.195877 L 1199.88548 795.042229 C 1199.88548 783.940927 1191.146156 775.201603 1180.044854 775.201603 Z M 620.019564 855.036503 C 608.918261 855.036503 599.94274 864.012025 599.94274 875.113327 L 599.94274 915.030777 C 599.94274 926.13208 608.918261 935.107601 620.019564 935.107601 L 659.937014 935.107601 C 671.038317 935.107601 680.013838 926.13208 680.013838 915.030777 L 680.013838 875.113327 C 680.013838 864.012025 671.038317 855.036503 659.937014 855.036503 Z M 779.925562 855.036503 C 768.824259 855.036503 760.084936 864.012025 760.084936 875.113327 L 760.084936 915.030777 C 760.084936 926.13208 768.824259 935.107601 779.925562 935.107601 L 820.07921 935.107601 C 831.180512 935.107601 839.919836 926.13208 839.919836 915.030777 L 839.919836 875.113327 C 839.919836 864.012025 831.180512 855.036503 820.07921 855.036503 Z M 1060.056306 855.036503 C 1048.955003 855.036503 1039.979482 864.012025 1039.979482 875.113327 L 1039.979482 915.030777 C 1039.979482 926.13208 1048.955003 935.107601 1060.056306 935.107601 L 1099.973756 935.107601 C 1111.075058 935.107601 1120.05058 926.13208 1120.05058 915.030777 L 1120.05058 875.113327 C 1120.05058 864.012025 1111.075058 855.036503 1099.973756 855.036503 Z M 1219.962304 855.036503 C 1208.861001 855.036503 1199.88548 864.012025 1199.88548 875.113327 L 1199.88548 915.030777 C 1199.88548 926.13208 1208.861001 935.107601 1219.962304 935.107601 L 1260.115952 935.107601 C 1270.981056 935.107601 1279.956578 926.13208 1279.956578 915.030777 L 1279.956578 875.113327 C 1279.956578 864.012025 1270.981056 855.036503 1260.115952 855.036503 Z M 820.07921 1015.178699 C 808.977907 1015.178699 800.002386 1024.154221 800.002386 1035.019325 L 800.002386 1075.172973 C 800.002386 1086.274276 808.977907 1095.013599 820.07921 1095.013599 L 1060.056306 1095.013599 C 1071.157608 1095.013599 1079.896932 1086.274276 1079.896932 1075.172973 L 1079.896932 1035.019325 C 1079.896932 1024.154221 1071.157608 1015.178699 1060.056306 1015.178699 Z M 740.008112 1095.013599 C 728.906809 1095.013599 719.931288 1103.989121 719.931288 1115.090423 L 719.931288 1155.007873 C 719.931288 1166.109176 728.906809 1175.084697 740.008112 1175.084697 L 779.925562 1175.084697 C 791.026864 1175.084697 800.002386 1166.109176 800.002386 1155.007873 L 800.002386 1115.090423 C 800.002386 1103.989121 791.026864 1095.013599 779.925562 1095.013599 Z M 1099.973756 1095.013599 C 1088.872453 1095.013599 1079.896932 1103.989121 1079.896932 1115.090423 L 1079.896932 1155.007873 C 1079.896932 1166.109176 1088.872453 1175.084697 1099.973756 1175.084697 L 1139.891206 1175.084697 C 1150.992508 1175.084697 1159.96803 1166.109176 1159.96803 1155.007873 L 1159.96803 1115.090423 C 1159.96803 1103.989121 1150.992508 1095.013599 1139.891206 1095.013599 Z M 659.937014 1175.084697 C 648.835711 1175.084697 640.096388 1184.060218 640.096388 1195.161521 L 640.096388 1235.078971 C 640.096388 1246.180274 648.835711 1255.155795 659.937014 1255.155795 L 700.090662 1255.155795 C 711.191964 1255.155795 719.931288 1246.180274 719.931288 1235.078971 L 719.931288 1195.161521 C 719.931288 1184.060218 711.191964 1175.084697 700.090662 1175.084697 Z M 1180.044854 1175.084697 C 1168.943551 1175.084697 1159.96803 1184.060218 1159.96803 1195.161521 L 1159.96803 1235.078971 C 1159.96803 1246.180274 1168.943551 1255.155795 1180.044854 1255.155795 L 1219.962304 1255.155795 C 1231.063606 1255.155795 1240.039128 1246.180274 1240.039128 1235.078971 L 1240.039128 1195.161521 C 1240.039128 1184.060218 1231.063606 1175.084697 1219.962304 1175.084697 Z M 1180.044854 1175.084697 " transform="matrix(0.016538,0,0,0.016538,0,0)"/>
</g>
</svg>

<svg xmlns="http://www.w3.org/2000/svg" width="32pt" height="32pt" viewBox="0 0 32 32"><defs><linearGradient id="a" gradientUnits="userSpaceOnUse" x1="254" y1="233.5" x2="254" y2="254.667" gradientTransform="matrix(.0625 0 0 .0625 .662 13.439)"><stop offset="0" stop-opacity=".275"/><stop offset="1" stop-opacity="0"/></linearGradient><radialGradient id="b" gradientUnits="userSpaceOnUse" cx="450.909" cy="189.579" fx="450.909" fy="189.579" r="21.167" gradientTransform="matrix(0 -.07813 -.14064 0 49.485 63.595)"><stop offset="0" stop-opacity=".314"/><stop offset=".222" stop-opacity=".275"/><stop offset="1" stop-opacity="0"/></radialGradient><radialGradient id="c" gradientUnits="userSpaceOnUse" cx="450.909" cy="189.579" fx="450.909" fy="189.579" r="21.167" gradientTransform="matrix(0 .07813 .14064 0 -18.393 -7.527)"><stop offset="0" stop-opacity=".314"/><stop offset=".222" stop-opacity=".275"/><stop offset="1" stop-opacity="0"/></radialGradient><radialGradient id="d" gradientUnits="userSpaceOnUse" cx="450.909" cy="189.579" fx="450.909" fy="189.579" r="21.167" gradientTransform="matrix(0 -.07813 .14064 0 -18.393 63.595)"><stop offset="0" stop-opacity=".314"/><stop offset=".222" stop-opacity=".275"/><stop offset="1" stop-opacity="0"/></radialGradient><radialGradient id="e" gradientUnits="userSpaceOnUse" cx="450.909" cy="189.579" fx="450.909" fy="189.579" r="21.167" gradientTransform="matrix(0 .07813 -.14064 0 49.485 -7.527)"><stop offset="0" stop-opacity=".314"/><stop offset=".222" stop-opacity=".275"/><stop offset="1" stop-opacity="0"/></radialGradient><linearGradient id="f" gradientUnits="userSpaceOnUse" x1="940" y1="1695.118" x2="940" y2="175.118" gradientTransform="rotate(.891) scale(.01654)"><stop offset="0" stop-color="#ef9a9a"/><stop offset="1" stop-color="#ffcdd2"/></linearGradient><linearGradient id="g" gradientUnits="userSpaceOnUse" x1="249.189" y1="233.5" x2="249.189" y2="254.667" gradientTransform="matrix(.0299 0 0 .10938 15.042 -16.36)"><stop offset="0" stop-opacity=".275"/><stop offset="1" stop-opacity="0"/></linearGradient><linearGradient id="h" gradientUnits="userSpaceOnUse" x1="338.667" y1="233.5" x2="338.667" y2="-168.667" gradientTransform="matrix(.0625 0 0 .0625 0 13.439)"><stop offset="0" stop-color="#ef5350"/><stop offset="1" stop-color="#e57373"/></linearGradient><linearGradient id="i" gradientUnits="userSpaceOnUse" x1="940" y1="1695.118" x2="940" y2="175.118"><stop offset="0" stop-color="#ef5350"/><stop offset="1" stop-color="#e57373"/></linearGradient></defs><path d="M7.938 28.035h15.214v1.32H7.937zm0 0" fill="url(#a)"/><path d="M23.152 28.035h2.649v-1.324h-2.649zm0 0" fill="url(#b)"/><path d="M7.938 28.035H5.293v1.32h2.644zm0 0" fill="url(#c)"/><path d="M7.938 28.035H5.293v-1.324h2.644zm0 0" fill="url(#d)"/><path d="M23.152 28.035h2.649v1.32h-2.649zm0 0" fill="url(#e)"/><path d="M18.543 2.895H6.613c-.73 0-1.32.59-1.32 1.324V26.71c0 .734.59 1.324 1.32 1.324h17.864a1.32 1.32 0 0 0 1.324-1.324V10.152zm0 0" fill="url(#f)"/><path d="M18.523 9.18h6.286l.992.992v1.324h-7.278zm0 0" fill="url(#g)"/><path d="M5.293 26.195v.516c0 .734.59 1.324 1.32 1.324h17.864a1.32 1.32 0 0 0 1.324-1.324v-.516a1.32 1.32 0 0 1-1.324 1.325H6.613c-.73 0-1.32-.59-1.32-1.325zm0 0" fill-opacity=".235"/><path d="M6.613 2.895c-.73 0-1.32.59-1.32 1.324v.496c0-.735.59-1.324 1.32-1.324h11.93l7.258 7.257v-.496l-7.258-7.257zm0 0" fill="#f6f6f6" fill-opacity=".588"/><path d="M25.8 10.152l-7.257-7.257v5.937c0 .73.59 1.32 1.32 1.32zm0 0" fill="url(#h)"/><path d="M18.543 8.52v.312c0 .73.59 1.32 1.32 1.32h5.938l-.313-.308h-5.625c-.73 0-1.32-.59-1.32-1.324zm0 0" fill-opacity=".235"/><path d="M18.543 2.895v.496l6.762 6.761h.496zm0 0" fill="#fff" fill-opacity=".392"/><path d="M18.54 2.8a.094.094 0 0 0-.09.095v5.937c0 .781.632 1.414 1.413 1.414h5.938c.035 0 .07-.023.086-.059.015-.035.004-.074-.02-.101L18.61 2.828a.112.112 0 0 0-.07-.027zm.097.321l6.937 6.938h-5.71c-.68 0-1.227-.547-1.227-1.227zm0 0" fill="#212121"/><path d="M6.613 2.8C5.832 2.8 5.2 3.439 5.2 4.22V26.71c0 .785.633 1.418 1.414 1.418h17.864c.78 0 1.418-.633 1.418-1.418V10.152a.11.11 0 0 0-.028-.066L18.61 2.828a.11.11 0 0 0-.066-.027zm0 .188h11.89l7.204 7.203v16.52c0 .684-.547 1.23-1.23 1.23H6.613c-.68 0-1.226-.546-1.226-1.23V4.219c0-.684.547-1.23 1.226-1.23zm0 0" fill="#212121"/><path d="M620.02 695.13c-11.102 0-20.077 8.976-20.077 20.077v39.918c0 11.101 8.975 20.077 20.077 20.077h39.917c11.101 0 20.077-8.976 20.077-20.077v-39.918c0-11.101-8.976-20.076-20.077-20.076zm159.906 0c-11.102 0-19.841 8.976-19.841 20.077v39.918c0 11.101 8.74 20.077 19.84 20.077h40.154c11.102 0 19.84-8.976 19.84-20.077v-39.918c0-11.101-8.738-20.076-19.84-20.076zm280.13 0c-11.101 0-20.077 8.976-20.077 20.077v39.918c0 11.101 8.976 20.077 20.077 20.077h39.918c11.101 0 20.077-8.976 20.077-20.077v-39.918c0-11.101-8.976-20.076-20.077-20.076zm159.906 0c-11.101 0-20.077 8.976-20.077 20.077v39.918c0 11.101 8.976 20.077 20.077 20.077h40.154c10.865 0 19.84-8.976 19.84-20.077v-39.918c0-11.101-8.975-20.076-19.84-20.076zm-519.871 80.072c-11.102 0-20.077 8.739-20.077 19.84v40.154c0 11.101 8.975 19.84 20.077 19.84h39.917c11.101 0 20.077-8.739 20.077-19.84v-40.154c0-11.101-8.976-19.84-20.077-19.84zm439.8 0c-10.865 0-19.84 8.739-19.84 19.84v40.154c0 11.101 8.975 19.84 19.84 19.84h40.154c11.101 0 19.84-8.739 19.84-19.84v-40.154c0-11.101-8.739-19.84-19.84-19.84zM620.02 855.037c-11.102 0-20.077 8.975-20.077 20.076v39.918c0 11.101 8.975 20.077 20.077 20.077h39.917c11.101 0 20.077-8.976 20.077-20.077v-39.918c0-11.101-8.976-20.076-20.077-20.076zm159.906 0c-11.102 0-19.841 8.975-19.841 20.076v39.918c0 11.101 8.74 20.077 19.84 20.077h40.154c11.102 0 19.84-8.976 19.84-20.077v-39.918c0-11.101-8.738-20.076-19.84-20.076zm280.13 0c-11.101 0-20.077 8.975-20.077 20.076v39.918c0 11.101 8.976 20.077 20.077 20.077h39.918c11.101 0 20.077-8.976 20.077-20.077v-39.918c0-11.101-8.976-20.076-20.077-20.076zm159.906 0c-11.101 0-20.077 8.975-20.077 20.076v39.918c0 11.101 8.976 20.077 20.077 20.077h40.154c10.865 0 19.84-8.976 19.84-20.077v-39.918c0-11.101-8.975-20.076-19.84-20.076zM820.08 1015.179c-11.101 0-20.077 8.975-20.077 19.84v40.154c0 11.101 8.976 19.84 20.077 19.84h239.977c11.102 0 19.84-8.739 19.84-19.84v-40.154c0-10.865-8.738-19.84-19.84-19.84zm-80.07 79.835c-11.102 0-20.078 8.975-20.078 20.076v39.918c0 11.101 8.976 20.077 20.077 20.077h39.918c11.1 0 20.076-8.976 20.076-20.077v-39.918c0-11.1-8.975-20.076-20.076-20.076zm359.965 0c-11.102 0-20.077 8.975-20.077 20.076v39.918c0 11.101 8.975 20.077 20.077 20.077h39.917c11.102 0 20.077-8.976 20.077-20.077v-39.918c0-11.1-8.975-20.076-20.077-20.076zm-440.037 80.07c-11.101 0-19.84 8.976-19.84 20.078v39.917c0 11.101 8.739 20.077 19.84 20.077h40.154c11.101 0 19.84-8.976 19.84-20.077v-39.917c0-11.102-8.739-20.077-19.84-20.077zm520.108 0c-11.101 0-20.077 8.976-20.077 20.078v39.917c0 11.101 8.976 20.077 20.077 20.077h39.917c11.102 0 20.077-8.976 20.077-20.077v-39.917c0-11.102-8.975-20.077-20.077-20.077zm0 0" transform="rotate(.891) scale(.01654)" fill="url(#i)" stroke-width="11.339" stroke-linecap="round" stroke-linejoin="round" stroke="#212121"/></svg>
